X: 342
T: WE MET AT THE FAIR
T: Do theatmhar ag an aonach
B: O'Neill's 342
M: 6/8
L: 1/8
Z: 1999 by John Chambers <jc@trillian.mit.edu>
N: "Gaily"
N: "Collected by F.O'Neill"
K:A
(c/d/) \
| e>AB GFE | Tc>Bc dcd | ede cAF | =G3- G3 (c/d/) |
| e>AB GFE | Tc>Bc eag | fde cAB | A3 A2 ||
|| (A/B/) \
| c(cd) e(ef) | {a}=gec d2(c/d/) | eAB {d}cAF | =G3- G3 (c/d/) |
| eAB GFE | Tc>Bc eag | fde cAB | A3 A2 ||


